archdroid-icon-theme/Archdroid-LightBlue/status/scalable/semi-starred-rtl.svg

<?xml version="1.0" encoding="UTF-8" standalone="no"?>
<svg
   xmlns:dc="http://purl.org/dc/elements/1.1/"
   xmlns:cc="http://creativecommons.org/ns#"
   xmlns:rdf="http://www.w3.org/1999/02/22-rdf-syntax-ns#"
   xmlns:svg="http://www.w3.org/2000/svg"
   xmlns="http://www.w3.org/2000/svg"
   xmlns:sodipodi="http://sodipodi.sourceforge.net/DTD/sodipodi-0.dtd"
   xmlns:inkscape="http://www.inkscape.org/namespaces/inkscape"
   fill="#03A9F4"
   width="24"
   height="24"
   viewBox="0 0 24 24"
   id="svg2"
   version="1.1"
   inkscape:version="0.91 r13725"
   sodipodi:docname="semi-starred.svg">
  <metadata
     id="metadata10">
    <rdf:RDF>
      <cc:Work
         rdf:about="">
        <dc:format>image/svg+xml</dc:format>
        <dc:type
           rdf:resource="http://purl.org/dc/dcmitype/StillImage" />
      </cc:Work>
    </rdf:RDF>
  </metadata>
  <defs
     id="defs8" />
  <sodipodi:namedview
     pagecolor="#ffffff"
     bordercolor="#666666"
     borderopacity="1"
     objecttolerance="10"
     gridtolerance="10"
     guidetolerance="10"
     inkscape:pageopacity="0"
     inkscape:pageshadow="2"
     inkscape:window-width="1366"
     inkscape:window-height="713"
     id="namedview6"
     showgrid="false"
     inkscape:snap-bbox="true"
     inkscape:bbox-nodes="true"
     inkscape:zoom="11.02408854748338"
     inkscape:cx="5.827163232815447"
     inkscape:cy="6.54451205207287"
     inkscape:window-x="0"
     inkscape:window-y="30"
     inkscape:window-maximized="1"
     inkscape:current-layer="svg2" />
  <path
     d="M 12 2 L 9.189453125 8.630859375 L 2 9.240234375 L 7.4609375 13.970703125 L 5.8203125 21 L 12 17.26953125 L 12 2 z "
     id="path4142"
     style="opacity:0.3" />
  <path
     d="M 12 2 L 12 17.26953125 L 18.1796875 21 L 16.5390625 13.970703125 L 22 9.240234375 L 14.810546875 8.630859375 L 12 2 z "
     id="path4"
     style="fill:#03A9F4;fill-opacity:1;opacity:1" />
</svg>

<svg xmlns="http://www.w3.org/2000/svg" fill="#03A9F4" viewBox="0 0 24 24"><path d="m12 2l-2.811 6.631-7.189.609 5.461 4.73-1.641 7.03 6.18-3.73v-15.27" opacity=".3"/><path d="m12 2v15.27l6.18 3.73-1.641-7.03 5.461-4.73-7.189-.609-2.811-6.631"/></svg>
